icons/logo-codesandbox.svg

<svg
  width="24"
  height="24"
  viewBox="0 0 24 24"
  xmlns="http://www.w3.org/2000/svg"
  fill="none"
  stroke="currentColor"
  stroke-width="2"
  stroke-linecap="round"
  stroke-linejoin="round"
>
  <path d="M20 7.5v9l-4 2.25L12 21l-4-2.25-4-2.25v-9l4-2.25L12 3l4 2.25 4 2.25z" />
  <path d="M12 12l4-2.25 4-2.25" />
  <path d="M12 12v9" />
  <path d="M12 12L8 9.75 4 7.5" />
  <path d="M20 12l-4 2v4.75" />
  <path d="M4 12l4 2v4.75" />
  <path d="M8 5.25l4 2.25 4-2.25" />
</svg>

<svg width="24" height="24" viewBox="0 0 24 24" fill="none" xmlns="http://www.w3.org/2000/svg">
<path d="M20 7.5V16.5L16 18.75L12 21L8 18.75L4 16.5V7.5L8 5.25L12 3L16 5.25L20 7.5Z" stroke="#1E293B" stroke-width="2" stroke-linecap="round" stroke-linejoin="round"/>
<path d="M12 12L16 9.75L20 7.5" stroke="#1E293B" stroke-width="2" stroke-linecap="round" stroke-linejoin="round"/>
<path d="M12 12V21" stroke="#1E293B" stroke-width="2" stroke-linecap="round" stroke-linejoin="round"/>
<path d="M12 12L8 9.75L4 7.5" stroke="#1E293B" stroke-width="2" stroke-linecap="round" stroke-linejoin="round"/>
<path d="M20 12L16 14V18.75" stroke="#1E293B" stroke-width="2" stroke-linecap="round" stroke-linejoin="round"/>
<path d="M4 12L8 14V18.75" stroke="#1E293B" stroke-width="2" stroke-linecap="round" stroke-linejoin="round"/>
<path d="M8 5.25L12 7.5L16 5.25" stroke="#1E293B" stroke-width="2" stroke-linecap="round" stroke-linejoin="round"/>
</svg>
